X: 23354
T: Leitrim Fancy, The
R: hornpipe
M: 4/4
K: Dmajor
A>G|F>GE>F D>EF>G|A>BG>B A2 d>e|f2 (3ef^g a>fe>c|d>BA>F G2
A>G|(3FGF (3EFE D>EF>G|A>BG>B A2 d>e|f2 (3ef^g a>fe>c|d2 d>c d2:|
ze|f>ef>^g a>=ge>g|f>ef>^g a2 e>^g|a>=ge>c d>fe>c|d>cA>F G2
a>g|f>ef>^g a>=ge>g|f>ef>^g a2 (3ef^g|a>=ge>c d>fe>c|d2 (3edc d2:|

